X:364
T:Trim the Velvet
Z: id:dc-reel-367
M:C
L:1/8
K:G Major
G3B AGFD|GBdB cAFA|G3B AGFD|defd cAFA|!
G3B A3c|BcdB cAFA|G3B AGFD|defd cAFA|]!
dgeB dgg2|dedB cAFA|dgeB dgg2|defd cAFA|!
d3e dBB2|dBGd cAFA|dgeB dgg2|defd cAFA|]!
g3a bgaf|g2ab c'baf|g3a bgaf|defd cAFA:|!
BGdG BGG2|DGBd cAFA|BGdG BGBc|defd cAFA|!
BGdG BGG2|DGBd cAFA|B3G AGFD|defd cAFA|]!

